icons/youtube-filled.svg

<svg width="256px" height="256px" viewBox="0 0 256 256" version="1.1" xmlns="http://www.w3.org/2000/svg" xmlns:xlink="http://www.w3.org/1999/xlink">
    <g id="Page-1" stroke="none" stroke-width="1" fill="none" fill-rule="evenodd">
        <g id="youtube" fill-rule="nonzero">
            <path d="M196,0 L60,0 C26.8629,0 0,26.8629 0,60 L0,196 C0,229.137 26.8629,256 60,256 L196,256 C229.137,256 256,229.137 256,196 L256,60 C256,26.8629 229.137,0 196,0 Z" id="Path" fill="#FF0000"></path>
            <g id="Group" transform="translate(129, 127) scale(-1, 1) rotate(-180) translate(-129, -127)translate(27, 53)" fill="#FFFFFF">
                <path d="M83.8366193,147.614668 C53.9840643,147.192808 27.6919058,145.224129 20.5026437,142.83359 C13.6557274,140.513362 7.08268775,133.904226 4.75473622,127.084159 C-0.585858483,111.194109 -1.68136509,56.071101 2.7691305,29.4939365 C4.34392124,20.2130219 6.12411947,16.2053542 10.8484917,11.2836571 C15.9152098,6.08072015 20.1602978,4.25266121 30.4306723,2.91677199 C48.4380621,0.526233389 96.2295377,-0.669035913 130.943403,0.385613471 C176.612335,1.79181265 184.965573,3.12770187 192.839526,10.2993177 C201.740518,18.314653 204,31.2516855 204,74.2813803 C204,111.123799 202.425209,124.131141 196.742269,132.849576 C191.127797,141.568011 184.075474,144.310099 162.370749,145.997538 C153.606696,146.700638 101.296256,148.247457 97.5304518,147.966217 C96.5718835,147.825597 90.4096589,147.684977 83.8366193,147.614668 Z M108.510997,89.8109861 C122.873449,81.4160821 134.717366,74.2104561 134.785714,73.8606685 C134.921572,73.3709657 85.2996418,43.9188441 82.5769021,42.9394387 C82.2365597,42.7995236 81.9642857,55.2519646 81.9642857,73.8606685 C81.9642857,91.0002642 82.1004227,105.061728 82.2365597,105.061728 C82.3046282,105.061728 94.2166141,98.2058901 108.510997,89.8109861 Z" id="Shape"></path>
            </g>
        </g>
    </g>
</svg>

<svg xmlns="http://www.w3.org/2000/svg" width="256" height="256"><g id="Page-1" fill="none" fill-rule="evenodd" stroke="none" stroke-width="1"><g id="youtube" fill-rule="nonzero"><path id="Path" fill="red" d="M196 0H60C26.863 0 0 26.863 0 60v136c0 33.137 26.863 60 60 60h136c33.137 0 60-26.863 60-60V60c0-33.137-26.863-60-60-60"/><g id="Group" fill="#FFF" transform="matrix(1 0 0 -1 27 201)"><path id="Shape" d="M83.837 147.615c-29.853-.422-56.145-2.39-63.334-4.781-6.847-2.32-13.42-8.93-15.748-15.75-5.34-15.89-6.436-71.013-1.986-97.59 1.575-9.281 3.355-13.289 8.08-18.21C15.914 6.08 20.16 4.253 30.43 2.917 48.438.527 96.23-.67 130.943.386c45.67 1.406 54.023 2.742 61.897 9.913 8.9 8.016 11.16 20.953 11.16 63.982 0 36.843-1.575 49.85-7.258 58.569-5.614 8.718-12.667 11.46-34.371 13.148-8.764.703-61.075 2.25-64.84 1.968-.96-.14-7.121-.281-13.694-.351M108.51 89.81c14.362-8.395 26.206-15.6 26.275-15.95.136-.49-49.486-29.942-52.21-30.922-.34-.14-.612 12.313-.612 30.922 0 17.14.136 31.2.273 31.2.068 0 11.98-6.855 26.274-15.25"/></g></g></g></svg>
